resources/haticons/SVG/view_list.svg

<svg height="24" width="24" xmlns="http://www.w3.org/2000/svg"><path d="m9 5.016h12v3.984h-12zm0 13.968v-3.984h12v3.984zm0-4.968v-4.031h12v4.031zm-5.016-5.016v-3.984h4.031v3.984zm0 9.984v-3.984h4.031v3.984zm0-4.968v-4.031h4.031v4.031z"/></svg>

<svg height="24" width="24" xmlns="http://www.w3.org/2000/svg"><path d="M9 5.016h12V9H9zm0 13.968V15h12v3.984zm0-4.968V9.985h12v4.031zM3.984 9V5.016h4.031V9zm0 9.984V15h4.031v3.984zm0-4.968V9.985h4.031v4.031z"/></svg>
